src/assets/logos/csharp.svg

<svg xmlns="http://www.w3.org/2000/svg" viewBox="0 0 57.18 64.31"><path d="M47.27 33.33h2.3V31h-2.3zm9.9-14.44a5.64 5.64 0 0 0-.7-2.86 5.36 5.36 0 0 0-2.06-2L31.57.87a5.62 5.62 0 0 0-6.08.05L2.77 14A5.27 5.27 0 0 0 0 18.91v26.5a5.77 5.77 0 0 0 .67 2.8 5.52 5.52 0 0 0 2.1 2.08L25.5 63.4a5.58 5.58 0 0 0 6.08 0Q43 56.84 54.42 50.28a5.23 5.23 0 0 0 2.09-2.08 5.77 5.77 0 0 0 .67-2.8zm-28.6 32.24A19 19 0 1 1 45 22.62l-8.26 4.76a9.46 9.46 0 0 0-17.64 4.74 9.35 9.35 0 0 0 1.25 4.68 9.45 9.45 0 0 0 16.46 0l8.26 4.8a19 19 0 0 1-16.5 9.54zM53 31h-1.58v2.3H53v1.9h-1.58v1.53h-1.88v-1.5h-2.3v1.53h-1.9v-1.53h-1.53v-1.9h1.53V31h-1.53v-1.84h1.53v-1.53h1.9v1.53h2.3v-1.53h1.88v1.53H53z" fill="#fff"/></svg>

<svg id="Layer_1" data-name="Layer 1" xmlns="http://www.w3.org/2000/svg" viewBox="0 0 57.18 64.31"><defs><style>.cls-1{fill:#fff;}</style></defs><title>csharp</title><path class="cls-1" d="M47.27,33.33h2.29V31H47.27Zm9.91-14.44a5.64,5.64,0,0,0-.7-2.86,5.36,5.36,0,0,0-2.06-2L31.57.87a5.62,5.62,0,0,0-6.08.05C22.46,2.7,7.28,11.4,2.77,14A5.27,5.27,0,0,0,0,18.91V45.4a5.77,5.77,0,0,0,.67,2.8,5.52,5.52,0,0,0,2.1,2.08c4.52,2.63,19.69,11.31,22.72,13.11a5.58,5.58,0,0,0,6.08,0Q43,56.84,54.42,50.28a5.23,5.23,0,0,0,2.09-2.08,5.77,5.77,0,0,0,.67-2.8ZM28.57,51.13A19,19,0,1,1,45,22.62l-8.26,4.76a9.46,9.46,0,0,0-17.64,4.74,9.35,9.35,0,0,0,1.25,4.68,9.45,9.45,0,0,0,16.46,0l8.26,4.79A19,19,0,0,1,28.57,51.13ZM53,31H51.42v2.29H53v1.89H51.42v1.53H49.54V35.22H47.25v1.53H45.36V35.22H43.83V33.33h1.53V31H43.83V29.16h1.53V27.63h1.89v1.53h2.29V27.63h1.88v1.53H53Z"/></svg>
